!!!!SEGMENT: pl-kk--i-534_studzinski-piotr--iam-sol-recedit-igneus.krn
!!!cenid: 18xx:4495
!!!COM: Studziński, Piotr
!!!COM-rismID: pe50044409
!!!CDT: 1825/10/16-1869/04/20
!!!CNT: Polish
!!!OTL: Iam sol recedit igneus
!!!PDT:
!!!AGN: Sacred
!!!YEC: Copyright 2022 Narodowy Instytut Fryderyka Chopina (https://polishscores.org)
!!!YEM: License CC-BY-4.0 (https://creativecommons.org/licenses/by/4.0)
!!!SMS-siglum: PL-Kk
!!!SMS-shelfmark: I.534
!!!SMS-variant: Sopran. PL-Kk I.534:1; Alt PL-Kk I.534:3; Tenor PL-Kk I.534:5; Baſso. PL-Kk I.534:7
!!!SMS-altvar: Partytura PL-Kk I.534:10
!!!SMS-shelfwork: W
!!!NIFC-rismSourceID: 1001210555
!!!NIFC-rismChildID: 1001210558
!!!NIFC-islandoraID: pl-kk:16837
!!!URL-pdf-islandora: https://repozytorium.nifc.pl/islandora/object/pl-kk%3A16837/datastream/PDF/view
!!!URL-scan: https://polish.musicsources.pl/pl/lokalizacje/galeria/rekopisy/7161/ @EN{Scan on Polish Music Sources Website} @PL{Skany w portalu Dziedzictwo Muzyki Polskiej w otwartym dostępie}
!!!IIIF:
!!!ONB-nifc: UWAGA: wg głosów, skany 1-7. Proszę uzupełnić SMS:variant (głosy) i SMS:altvar (partytura, skan 10) wg instrukcji w wątku #53
!!!AIN: 1 alto 1 bass 1 soprn 1 tenor
!!!key: C
**kern	**text	**kern	**text	**kern	**text	**kern	**text
*part4	*part4	*part3	*part3	*part2	*part2	*part1	*part1
*staff4	*staff4	*staff3	*staff3	*staff2	*staff2	*staff1	*staff1
*ICvox	*	*ICvox	*	*ICvox	*	*ICvox	*
*Ibass	*	*Itenor	*	*Ialto	*	*Isoprn	*
*I"Baſso.	*	*I"Tenor	*	*I"Alt	*	*I"Sopran.	*
*I'B	*	*I'T	*	*I'A	*	*I'S	*
*clefF4	*	*clefC4	*	*clefC3	*	*clefC1	*
*k[]	*	*k[]	*	*k[]	*	*k[]	*
*C:	*	*C:	*	*C:	*	*C:	*
*M2/2	*	*M2/2	*	*M2/2	*	*M2/2	*
*met(c|)	*	*met(c|)	*	*met(c|)	*	*met(c|)	*
*>[A,A,B]	*>[A,A,B]	*>[A,A,B]	*>[A,A,B]	*>[A,A,B]	*>[A,A,B]	*>[A,A,B]	*>[A,A,B]
*all\right	*	*all\right	*	*all\right	*	*all\right	*
*2\right	*	*2\right	*	*2\right	*	*2\right	*
=1	=1	=1	=1	=1	=1	=1	=1
*>A	*>A	*>A	*>A	*>A	*>A	*>A	*>A
!!LO:TX:t=P:problem:all\right:global
2F\	Iam	2c\	Iam	2f\	Iam	2a/	Iam
4E\	sol	4G\	sol	4c\	sol	4g/	sol
4D\	.	4G\	.	4B\	.	4f/	.
=2	=2	=2	=2	=2	=2	=2	=2
2C\	.	2G/	.	2c\	.	2e/	.
2F\	.	2A/	.	2f\	.	2f/	.
=3	=3	=3	=3	=3	=3	=3	=3
2GG/	re-	2G/	re-	2B/	re-	2d/	re-
2C/	-ce-	2G/	-ce-	2c/	-ce-	2e/	-ce-
=4	=4	=4	=4	=4	=4	=4	=4
1AA	-dit	1F	-dit	1c	-dit	1f	-dit
=5	=5	=5	=5	=5	=5	=5	=5
!	!	!	!	!	!	!LO:TX:t=rallen	!
2C/	i-	2E/	i-	2c/	i-	2g/	i-
4.FF/	.	4.F/	.	4.f\	.	4.a/	.
8C/	-gne-	8c\	-gne-	8e\	-gne-	8g/	-gne-
=6	=6	=6	=6	=6	=6	=6	=6
1C	-us	1c	-us.	1e	-us.	1g	-us.
!LO:LB:g=original	!	!LO:LB:g=original	!	!LO:LB:g=original	!	!LO:LB:g=original	!
=7	=7	=7	=7	=7	=7	=7	=7
2A\	Tu	2c\	Tu	2e\	Tu	2a\	Tu
4C#X/	.	4B-X\	.	4e\	.	4g\	.
4D\	.	4A\	.	4d\	.	4f\	.
=8	=8	=8	=8	=8	=8	=8	=8
2AA/	lux	2A\	lux	2c#X\	lux	2e/	lux
2D\	.	2A\	.	2d\	.	2f/	.
=9	=9	=9	=9	=9	=9	=9	=9
2F\	pe-	2G\	pe-	2B/	pe-	2d/	pe-
2E\	-ren-	2G\	-ren-	2c/	-ren-	2e/	-ren-
=10	=10	=10	=10	=10	=10	=10	=10
1AA	-nis	1F	-nis	1c	-nis	1f	-nis
=11	=11	=11	=11	=11	=11	=11	=11
!	!	!	!	!LO:TX:a:t=rall.	!	!LO:TX:a:t=rall	!
2E\	U-	2G/	U-	2c\	U-	2g/	U-
4.F\	.	4.F/	.	4.c\	.	4.a\	.
8C\	-ni-	8c\	-ni-	8e\	-ni-	8g\	-ni-
=12	=12	=12	=12	=12	=12	=12	=12
1C	-tas	1c	-tas	1e	-tas	1g	-tas
=13	=13	=13	=13	=13	=13	=13	=13
2F\	Nos-	2A\	Nos-	2c\	Nos-	2a\	Nos-
2E\	-tris	2G#X\	-tris	2e\	-tris	2b\	-tris
!LO:LB:g=original	!	!LO:LB:g=original	!	!LO:LB:g=original	!	!LO:LB:g=original	!
=14	=14	=14	=14	=14	=14	=14	=14
2AA/	be-	2A\	be-	2e\	be-	2cc\	be-
2F#X 2C\	-a-	2c\	-a-	2d\	-a-	2a\	-a-
=15	=15	=15	=15	=15	=15	=15	=15
1G 1GG	-ta	1B	-ta	1d	-ta	1g	-ta
=16	=16	=16	=16	=16	=16	=16	=16
2E\	Tri-	2G/	Tri-	2c\	Tri-	2g\	Tri-
2BB\	-ni-	4G/	-ni-	2d\	-ni-	2f\	-ni-
.	.	4A-X/	.	.	.	.	.
=17	=17	=17	=17	=17	=17	=17	=17
1C	-tas	1G	-tas	1c	-tas	1e	-tas
=18	=18	=18	=18	=18	=18	=18	=18
2AA/	In-	2F/	In-	2c\	In-	2f\	In-
2C/	-fun-	2E/	-fun-	2c\	-fun-	2g\	-fun-
=19	=19	=19	=19	=19	=19	=19	=19
1GG	-de	1G	-de	1B	-de	1d	-de
=20	=20	=20	=20	=20	=20	=20	=20
2BB-X/	a-	2F/	a-	2B-X/	a-	2d/	a-
2BB-/	-mo-	2G/	-mo-	2c/	-mo-	2e/	-mo-
=21	=21	=21	=21	=21	=21	=21	=21
1AA	-rem	1F	-rem	1c	-rem	1f	-rem
!LO:LB:g=original	!	!LO:LB:g=original	!	!LO:LB:g=original	!	!LO:LB:g=original	!
=22	=22	=22	=22	=22	=22	=22	=22
!	!	!LO:SIC:v:s=2B-\	!	!	!	!	!
2E\	cor-	2B\	cor-	2c\	cor-	2g\	cor-
4.F\	.	4A\	-di-	4.c\	.	4.a\	.
.	.	4c\	.	.	.	.	.
8C\	-di-	.	.	8e\	-di-	8g\	-di-
=23	=23	=23	=23	=23	=23	=23	=23
1C	-bus	1c	-bus	1e	-bus	1g	-bus
=24:|!	=24:|!	=24:|!	=24:|!	=24:|!	=24:|!	=24:|!	=24:|!
*>B	*>B	*>B	*>B	*>B	*>B	*>B	*>B
2r	.	2r	.	2r	.	2r	.
4.C/	Cor-	4.A-X\	Cor-	4.B/	Cor-	4.f/	Cor-
8C/	-di-	8G\	-di-	8c/	-di-	8e/	-di-
=25	=25	=25	=25	=25	=25	=25	=25
1C	-bus.	1G	-bus.	1c	-bus.	1e	-bus.
==	==	==	==	==	==	==	==
*-	*-	*-	*-	*-	*-	*-	*-
!!!system-decoration: [(s1,s2,s3,s4)]
!!!RDF**kern: > = above
!!!RDF**kern: < = below
!!!ENC: Andrzej Gręziak
!!!EED: Katarzyna Serwa
!!!END: 2023-10-27
!!!EEV: 2024-05-02
